X:89
T:Fasten the Leg in Her
R:jig
Z:id:hn-jig-89
M:6/8
K:G
~B3 BAB|GBd gdB|~A3 AGA|Bee dBA|~B3 BAB|GBd ~g3|efg eag|1 fdd d2c:|2 fdd def||
|:~g3 fgf|efe dBA|~G3 AGA|Bee def|~g3 fgf|efe dBd|efg eag|1 fdd def:|2 fdd d2c||
<end>
<start>
